contributed-vectors/lsposed_manager.svg

<svg width="192" height="192" viewBox="0 0 192 192" fill="none" xmlns="http://www.w3.org/2000/svg">
<path fill-rule="evenodd" clip-rule="evenodd" d="M96 186C144.601 186 184 146.601 184 98C184 49.3989 144.601 10 96 10C47.3989 10 8 49.3989 8 98C8 146.601 47.3989 186 96 186Z" fill="#E0EBFF"/>
<path fill-rule="evenodd" clip-rule="evenodd" d="M54.7781 72.4566L120.539 138.218L138.924 119.833L73.1629 54.0718L54.7781 72.4566ZM49.8284 70.3353C48.6568 71.5068 48.6568 73.4063 49.8284 74.5779L118.418 143.167C119.589 144.339 121.489 144.339 122.66 143.167L143.874 121.954C145.045 120.782 145.045 118.883 143.874 117.711L75.2842 49.1221C74.1126 47.9505 72.2131 47.9505 71.0416 49.1221L49.8284 70.3353Z" fill="#FFB0AC"/>
<path fill-rule="evenodd" clip-rule="evenodd" d="M121.953 49.1209C120.782 47.9493 118.882 47.9493 117.711 49.1209L49.1214 117.71C47.9498 118.882 47.9498 120.781 49.1214 121.953L70.3346 143.166C71.5061 144.338 73.4056 144.338 74.5772 143.166L143.167 74.5767C144.338 73.4051 144.338 71.5056 143.167 70.3341L121.953 49.1209ZM100.036 88.4277C98.0829 90.3805 94.9171 90.3802 92.9646 88.4277C91.0122 86.4752 91.0118 83.3094 92.9646 81.3566C94.9175 79.4038 98.0832 79.4041 100.036 81.3566C101.988 83.3091 101.989 86.4749 100.036 88.4277ZM89.4291 99.0343C87.4763 100.987 84.3105 100.987 82.358 99.0343C80.4056 97.0818 80.4052 93.916 82.358 91.9632C84.3109 90.0104 87.4766 90.0107 89.4291 91.9632C91.3816 93.9157 91.3819 97.0815 89.4291 99.0343ZM110.642 99.0343C108.689 100.987 105.524 100.987 103.571 99.0343C101.619 97.0818 101.618 93.916 103.571 91.9632C105.524 90.0104 108.69 90.0107 110.642 91.9632C112.595 93.9157 112.595 97.0815 110.642 99.0343ZM100.036 109.641C98.0829 111.594 94.9171 111.593 92.9646 109.641C91.0122 107.688 91.0118 104.523 92.9646 102.57C94.9175 100.617 98.0832 100.617 100.036 102.57C101.988 104.522 101.989 107.688 100.036 109.641Z" fill="#FFB0AC"/>
</svg>

<svg xmlns="http://www.w3.org/2000/svg" width="192" height="192" fill="none"><path fill="#E0EBFF" fill-rule="evenodd" d="M96 186c48.601 0 88-39.399 88-88s-39.399-88-88-88S8 49.399 8 98s39.399 88 88 88Z" clip-rule="evenodd"/><path fill="#FFB0AC" fill-rule="evenodd" d="m54.778 72.457 65.761 65.761 18.385-18.385-65.761-65.761-18.385 18.385Zm-4.95-2.122a3 3 0 0 0 0 4.243l68.59 68.589a2.998 2.998 0 0 0 4.242 0l21.214-21.213a3.001 3.001 0 0 0 0-4.243l-68.59-68.589a3 3 0 0 0-4.242 0L49.828 70.335Z" clip-rule="evenodd"/><path fill="#FFB0AC" fill-rule="evenodd" d="M121.953 49.12a3 3 0 0 0-4.242 0l-68.59 68.59a3 3 0 0 0 0 4.243l21.214 21.213a3 3 0 0 0 4.242 0l68.59-68.59a3.001 3.001 0 0 0 0-4.242l-21.214-21.213Zm-21.917 39.308a5 5 0 1 1-7.071-7.072 5 5 0 0 1 7.071 7.072ZM89.429 99.034a5 5 0 1 1-7.071-7.07 5 5 0 0 1 7.071 7.07Zm21.213 0a5 5 0 1 1-7.071-7.07 5 5 0 0 1 7.071 7.07Zm-10.606 10.607a5 5 0 1 1-7.071-7.072 5 5 0 0 1 7.071 7.072Z" clip-rule="evenodd"/></svg>
